X:1
T:Bonnie Dundee
C:Traditional
M:3/4
L:1/4
Q:1/4=132
K:G
B | d2 e/2d/2 | d2 e/2d/2 | g f e | d2 c | B/2d3/2 g | B/2d3/2 g | A3/2B/2A | A B c |
d2 e/2d/2 | d2 e/2d/2 | g f e | d2 c | B/2d3/2 g | A/2d3/2 G | G3/2A/2G | G2 D |]
